src/hero/icons/gitlab.svg

<svg height="18" viewBox="0 0 21 18" width="21" xmlns="http://www.w3.org/2000/svg"><path d="m15.7979.599194c-.0928-.000947-.1834.025656-.2589.075949-.0754.050293-.1317.121659-.1606.203741l-2.1621 6.196476h-6.15115l-2.16211-6.196476c-.02831-.079674-.08233-.14928-.15469-.199331-.07236-.050052-.15953-.078113-.24964-.080359-.09011-.001591-.17855.022746-.25325.069687-.0747.046942-.13202.114202-.16413.192598l-2.60557 6.473331c-.00103 0-.00145.00056-.00198.00128-.00037.00049-.00079.00105-.0015.00155l-1.304311 3.23806c-.033233.0831-.036258.174-.008611.2588.027647.0849.084437.1589.16165.2107l9.561452 6.4734.00174.0032c.00174 0 .00174 0 .00174.0016l.01739.0093c.00163.0009.00315.0018.00462.0027.00115.0008.00227.0015.00339.0023.00319.0022.00638.0044.01025.006.00131 0 .00163.0009.00246.0013.00027.0002.00059.0003.00101.0003 0 0 .00174.0016.00348.0016.00086.0008.00173.0016.00275.0022.00104.0006.00224.001.00377.001l.00696.0049c.00379.0012.00784.0029.01202.0047.0054.0023.01104.0046.01667.0062v.0017l.02913.0093.00156.0001c.0003.0001.0006.0003.0009.0006.0003.0002.0006.0005.001.0009.0065.0016.0131.0032.0218.0065.0015 0 .0031.0003.0048.0006.0021.0005.0045.001.0073.001.0072.0027.0141.0039.021.0052.0014.0003.0028.0006.0043.0008l.0339.0049c.0056 0 .0113.0002.0171.0004.0031.0001.0062.0003.0094.0004.0089.0004.0178.0008.0265.0008l.0157-.0012c.0109-.0007.0213-.0014.0317-.0036.0069 0 .0117 0 .0187-.0017h.0035c.0034-.0016.0048-.0016.0087-.0016.0013 0 .003-.0012.0065-.0012.0017-.0008.0038-.0012.0059-.0016.0022-.0004.0043-.0008.0058-.0016.0059-.0014.0117-.003.0174-.0049.0031 0 .0048 0 .0065-.0016h.0053c.0153-.0046.0301-.0104.0443-.0174.0008 0 .0011 0 .0017-.0004.0003-.0003.0007-.0006.0013-.0012.0011 0 .0021 0 .0031-.0003.0007-.0003.0014-.0007.0022-.0013l.01-.0045c.0093-.0045.0184-.0094.0274-.0146.003-.0012.0047-.0028.0065-.0044.0008 0 .0017-.0004.0026-.0008s.0017-.0008.0026-.0008c.0041-.0029.008-.0052.012-.0075.0028-.0016.0056-.0033.0084-.0051l.0035-.0048 9.5615-6.4714c.1578-.1076.2191-.2991.1508-.4695l-1.3008-3.22712c-.002-.00352-.0032-.00738-.0035-.01134l-2.6086-6.476161c-.0309-.07626-.0857-.142083-.1574-.188874-.0716-.046791-.1572-.072375-.2448-.073411z"/></svg>

<svg width="21" height="18" viewBox="0 0 21 18" xmlns="http://www.w3.org/2000/svg">
<path d="M15.7979 0.599194C15.7051 0.598247 15.6145 0.62485 15.539 0.675143C15.4636 0.725436 15.4073 0.796802 15.3784 0.878884L13.2163 7.07536H7.06515L4.90304 0.878884C4.87473 0.79921 4.82071 0.729604 4.74835 0.679553C4.67599 0.629501 4.58882 0.60144 4.49871 0.599194C4.4086 0.597603 4.32016 0.62194 4.24546 0.668881C4.17076 0.715823 4.11344 0.783083 4.08133 0.861479L1.47576 7.33481C1.47473 7.33481 1.47431 7.33537 1.47378 7.33609C1.47341 7.33658 1.47299 7.33714 1.47228 7.33764L0.167969 10.5757C0.134736 10.6588 0.131711 10.7497 0.159358 10.8345C0.187005 10.9194 0.243795 10.9934 0.321008 11.0452L9.88246 17.5186L9.8842 17.5218C9.88594 17.5218 9.88594 17.5218 9.88594 17.5234L9.90333 17.5327C9.90496 17.5336 9.90648 17.5345 9.90795 17.5354C9.9091 17.5362 9.91022 17.5369 9.91134 17.5377C9.91453 17.5399 9.91772 17.5421 9.92159 17.5437C9.9229 17.5437 9.92322 17.5446 9.92405 17.545C9.92432 17.5452 9.92464 17.5453 9.92506 17.5453C9.92506 17.5453 9.9268 17.5469 9.92854 17.5469C9.9294 17.5477 9.93027 17.5485 9.93129 17.5491C9.93233 17.5497 9.93353 17.5501 9.93506 17.5501L9.94202 17.555C9.94581 17.5562 9.94986 17.5579 9.95404 17.5597C9.95944 17.562 9.96508 17.5643 9.97071 17.5659V17.5676L9.99984 17.5769L10.0014 17.577C10.0017 17.5771 10.002 17.5773 10.0023 17.5776C10.0026 17.5778 10.0029 17.5781 10.0033 17.5785C10.0098 17.5801 10.0164 17.5817 10.0251 17.585C10.0266 17.585 10.0282 17.5853 10.0299 17.5856C10.032 17.5861 10.0344 17.5866 10.0372 17.5866C10.0444 17.5893 10.0513 17.5905 10.0582 17.5918C10.0596 17.5921 10.061 17.5924 10.0625 17.5926L10.0964 17.5975C10.102 17.5975 10.1077 17.5977 10.1135 17.5979C10.1166 17.598 10.1197 17.5982 10.1229 17.5983C10.1318 17.5987 10.1407 17.5991 10.1494 17.5991L10.1651 17.5979C10.176 17.5972 10.1864 17.5965 10.1968 17.5943C10.2037 17.5943 10.2085 17.5943 10.2155 17.5926H10.219C10.2224 17.591 10.2238 17.591 10.2277 17.591C10.229 17.591 10.2307 17.5898 10.2342 17.5898C10.2359 17.589 10.238 17.5886 10.2401 17.5882C10.2423 17.5878 10.2444 17.5874 10.2459 17.5866C10.2518 17.5852 10.2576 17.5836 10.2633 17.5817C10.2664 17.5817 10.2681 17.5817 10.2698 17.5801H10.2751C10.2904 17.5755 10.3052 17.5697 10.3194 17.5627C10.3202 17.5627 10.3205 17.5627 10.3211 17.5623C10.3214 17.562 10.3218 17.5617 10.3224 17.5611C10.3235 17.5611 10.3245 17.5611 10.3255 17.5608C10.3262 17.5605 10.3269 17.5601 10.3277 17.5595L10.3377 17.555C10.347 17.5505 10.3561 17.5456 10.3651 17.5404C10.3681 17.5392 10.3698 17.5376 10.3716 17.536C10.3724 17.536 10.3733 17.5356 10.3742 17.5352C10.3751 17.5348 10.3759 17.5344 10.3768 17.5344C10.3809 17.5315 10.3848 17.5292 10.3888 17.5269C10.3916 17.5253 10.3944 17.5236 10.3972 17.5218L10.4007 17.517L19.9622 11.0456C20.12 10.938 20.1813 10.7465 20.113 10.5761L18.8122 7.34898C18.8102 7.34546 18.809 7.3416 18.8087 7.33764L16.2001 0.861479C16.1692 0.785219 16.1144 0.719396 16.0427 0.672605C15.9711 0.625814 15.8855 0.60023 15.7979 0.599194Z"/>
</svg>
